img/alterra-lbl.svg

<svg width="63" height="21" viewBox="0 0 63 21" xmlns="http://www.w3.org/2000/svg">
  <path d="M28.2803 14.4023H24.1104L23.1738 17H21.8203L25.6211 7.04688H26.7695L30.5771 17H29.2305L28.2803 14.4023ZM24.5068 13.3223H27.8906L26.1953 8.66699L24.5068 13.3223ZM33.0928 17H31.8281V6.5H33.0928V17ZM36.8389 7.8125V9.60352H38.2197V10.5811H36.8389V15.168C36.8389 15.4642 36.9004 15.6875 37.0234 15.8379C37.1465 15.9837 37.3561 16.0566 37.6523 16.0566C37.7982 16.0566 37.9987 16.0293 38.2539 15.9746V17C37.9212 17.0911 37.5977 17.1367 37.2832 17.1367C36.7181 17.1367 36.292 16.9658 36.0049 16.624C35.7178 16.2822 35.5742 15.7969 35.5742 15.168V10.5811H34.2275V9.60352H35.5742V7.8125H36.8389ZM42.7725 17.1367C41.7699 17.1367 40.9541 16.8086 40.3252 16.1523C39.6963 15.4915 39.3818 14.6097 39.3818 13.5068V13.2744C39.3818 12.5407 39.5208 11.8867 39.7988 11.3125C40.0814 10.7337 40.4733 10.2826 40.9746 9.95898C41.4805 9.63086 42.0273 9.4668 42.6152 9.4668C43.5768 9.4668 44.3242 9.78353 44.8574 10.417C45.3906 11.0505 45.6572 11.9574 45.6572 13.1377V13.6641H40.6465C40.6647 14.3932 40.8766 14.9834 41.2822 15.4346C41.6924 15.8812 42.2119 16.1045 42.8408 16.1045C43.2874 16.1045 43.6657 16.0133 43.9756 15.8311C44.2855 15.6488 44.5566 15.4072 44.7891 15.1064L45.5615 15.708C44.9417 16.6605 44.012 17.1367 42.7725 17.1367ZM42.6152 10.5059C42.1048 10.5059 41.6764 10.6927 41.3301 11.0664C40.9837 11.4355 40.7695 11.9551 40.6875 12.625H44.3926V12.5293C44.3561 11.8867 44.1829 11.39 43.873 11.0391C43.5632 10.6836 43.1439 10.5059 42.6152 10.5059ZM50.7021 10.7383C50.5107 10.7064 50.3034 10.6904 50.0801 10.6904C49.2507 10.6904 48.6878 11.0436 48.3916 11.75V17H47.127V9.60352H48.3574L48.3779 10.458C48.7926 9.7972 49.3805 9.4668 50.1416 9.4668C50.3877 9.4668 50.5745 9.4987 50.7021 9.5625V10.7383ZM55.4463 10.7383C55.2549 10.7064 55.0475 10.6904 54.8242 10.6904C53.9948 10.6904 53.432 11.0436 53.1357 11.75V17H51.8711V9.60352H53.1016L53.1221 10.458C53.5368 9.7972 54.1247 9.4668 54.8857 9.4668C55.1318 9.4668 55.3187 9.4987 55.4463 9.5625V10.7383ZM60.9082 17C60.8353 16.8542 60.776 16.5944 60.7305 16.2207C60.1426 16.8314 59.4408 17.1367 58.625 17.1367C57.8958 17.1367 57.2965 16.9316 56.8271 16.5215C56.3623 16.1068 56.1299 15.5827 56.1299 14.9492C56.1299 14.179 56.4215 13.582 57.0049 13.1582C57.5928 12.7298 58.4176 12.5156 59.4795 12.5156H60.71V11.9346C60.71 11.4925 60.5778 11.1416 60.3135 10.8818C60.0492 10.6175 59.6595 10.4854 59.1445 10.4854C58.6934 10.4854 58.3151 10.5993 58.0098 10.8271C57.7044 11.055 57.5518 11.3307 57.5518 11.6543H56.2803C56.2803 11.2852 56.4102 10.9297 56.6699 10.5879C56.9342 10.2415 57.2897 9.9681 57.7363 9.76758C58.1875 9.56706 58.682 9.4668 59.2197 9.4668C60.0719 9.4668 60.7396 9.68099 61.2227 10.1094C61.7057 10.5332 61.9564 11.1188 61.9746 11.8662V15.2705C61.9746 15.9495 62.0612 16.4896 62.2344 16.8906V17H60.9082ZM58.8096 16.0361C59.2061 16.0361 59.582 15.9336 59.9375 15.7285C60.293 15.5234 60.5505 15.2568 60.71 14.9287V13.4111H59.7188C58.1693 13.4111 57.3945 13.8646 57.3945 14.7715C57.3945 15.168 57.5267 15.4779 57.791 15.7012C58.0553 15.9245 58.3949 16.0361 58.8096 16.0361Z" fill="black" fill-opacity="0.6"/>
  <path fill-rule="evenodd" clip-rule="evenodd" d="M12 17.112V0H0V21L12 17.112Z" fill="#E30016"/>
  <path fill-rule="evenodd" clip-rule="evenodd" d="M7.74883 9.03614C7.74883 9.03614 7.25587 9.03614 6.30516 9.03614C5.35446 9.03614 3.95775 10.012 3.95775 12.3253C3.95775 14.2169 5.0493 14.9157 6.12911 14.9157C6.73944 14.9157 7.74883 13.8313 7.74883 12.5422V9.03614ZM11 15.6265H7.74883V14.747C7.19718 15.2651 6.03521 16 4.73239 16C3.44131 16 1 15.0602 1 12.2892C1 9.53012 4.12207 8.15663 5.92958 8.15663C7.73709 8.15663 7.74883 8.15663 7.74883 8.15663C7.74883 7.14458 7.74883 6.90361 7.74883 6.19277C7.74883 5.49398 7.25587 4.86747 6.37559 4.86747C5.48357 4.86747 4.40376 5.46988 4.40376 7.01205H1.80986C1.80986 5.98795 2.49061 4 6.39906 4C10.3192 4 10.73 5.80723 10.73 6.61446C10.73 7.43373 10.73 14.1205 10.73 14.506C10.73 15.1687 11 15.6265 11 15.6265Z" fill="white"/>
</svg>

<svg width="63" height="21" xmlns="http://www.w3.org/2000/svg"><path d="M28.28 14.402h-4.17L23.174 17H21.82l3.801-9.953h1.149L30.576 17H29.23l-.95-2.598zm-3.773-1.08h3.384l-1.696-4.655-1.688 4.655zM33.093 17h-1.265V6.5h1.265V17zm3.746-9.188v1.792h1.38v.977h-1.38v4.587c0 .296.061.52.184.67.123.146.333.219.63.219.145 0 .346-.028.6-.082V17a3.668 3.668 0 0 1-.97.137c-.565 0-.991-.171-1.278-.513-.287-.342-.43-.827-.43-1.456v-4.587h-1.348v-.977h1.347V7.813h1.265zm5.934 9.325c-1.003 0-1.819-.328-2.448-.985-.629-.66-.943-1.542-.943-2.645v-.233c0-.733.139-1.387.417-1.961a3.284 3.284 0 0 1 1.176-1.354 2.958 2.958 0 0 1 1.64-.492c.962 0 1.71.317 2.242.95.534.633.8 1.54.8 2.72v.527h-5.01c.018.73.23 1.32.635 1.77.41.447.93.67 1.559.67.446 0 .825-.09 1.135-.273.31-.182.58-.424.813-.725l.773.602c-.62.952-1.55 1.429-2.79 1.429zm-.158-6.631c-.51 0-.939.187-1.285.56-.346.37-.56.89-.642 1.559h3.705v-.096c-.037-.642-.21-1.139-.52-1.49-.31-.355-.73-.533-1.258-.533zm8.087.232a3.789 3.789 0 0 0-.622-.048c-.83 0-1.392.354-1.688 1.06V17h-1.265V9.604h1.23l.02.854c.416-.66 1.003-.991 1.765-.991.246 0 .432.032.56.095v1.176zm4.744 0a3.79 3.79 0 0 0-.622-.048c-.83 0-1.392.354-1.688 1.06V17H51.87V9.604h1.23l.021.854c.415-.66 1.003-.991 1.764-.991.246 0 .433.032.56.095v1.176zM60.908 17c-.073-.146-.132-.406-.178-.78-.587.611-1.29.917-2.105.917-.73 0-1.328-.205-1.798-.616a2.016 2.016 0 0 1-.697-1.572c0-.77.291-1.367.875-1.79.588-.43 1.413-.643 2.474-.643h1.231v-.581c0-.443-.132-.793-.397-1.053-.264-.264-.654-.397-1.169-.397-.45 0-.829.114-1.134.342-.306.228-.458.504-.458.827H56.28c0-.369.13-.724.39-1.066a2.7 2.7 0 0 1 1.066-.82c.452-.2.946-.301 1.484-.301.852 0 1.52.214 2.003.642.483.424.733 1.01.752 1.757v3.405c0 .678.086 1.219.26 1.62V17h-1.327zm-2.098-.964a2.21 2.21 0 0 0 1.127-.308 1.86 1.86 0 0 0 .773-.8v-1.517h-.991c-1.55 0-2.325.454-2.325 1.36 0 .397.133.707.397.93.264.223.604.335 1.019.335z" fill-opacity=".6"/><path fill-rule="evenodd" clip-rule="evenodd" d="M12 17.112V0H0v21l12-3.888z" fill="#E30016"/><path fill-rule="evenodd" clip-rule="evenodd" d="M7.749 9.036H6.305c-.95 0-2.347.976-2.347 3.29 0 1.89 1.091 2.59 2.171 2.59.61 0 1.62-1.085 1.62-2.374V9.036zM11 15.626H7.749v-.879C7.197 15.265 6.035 16 4.732 16 3.442 16 1 15.06 1 12.29c0-2.76 3.122-4.133 4.93-4.133h1.819V6.193c0-.699-.493-1.326-1.373-1.326-.892 0-1.972.603-1.972 2.145H1.81C1.81 5.988 2.49 4 6.4 4c3.92 0 4.33 1.807 4.33 2.614v7.892c0 .663.27 1.12.27 1.12z" fill="#fff"/></svg>
